assets/svg/icon-ui-hamburger-white.svg

<?xml version="1.0" encoding="UTF-8" standalone="no"?>
<svg width="31px" height="32px" viewBox="0 0 31 32" version="1.1" xmlns="http://www.w3.org/2000/svg" xmlns:xlink="http://www.w3.org/1999/xlink">
    <!-- Generator: Sketch 3.8.3 (29802) - http://www.bohemiancoding.com/sketch -->
    <title>white/icon-ui-hamburger-white</title>
    <desc>Created with Sketch.</desc>
    <defs></defs>
    <g id="white" stroke="none" stroke-width="1" fill="none" fill-rule="evenodd">
        <g id="icons,-utility-white" transform="translate(-842.000000, -236.000000)" fill="#FFFFFF">
            <g id="white/icon-ui-hamburger-white" transform="translate(842.000000, 236.000000)">
                <g id="Fill-4">
                    <g id="Page-1">
                        <path d="M28.1855229,4.57142857 C29.4506237,4.57142857 30.4761905,3.55688041 30.4761905,2.28571429 L30.4761905,2.28571429 C30.4761905,1.02334914 29.4621931,0 28.1855229,0 L2.29066758,0 C1.02556681,0 0,1.01454817 0,2.28571429 L0,2.28571429 C0,3.54807942 1.0139974,4.57142857 2.29066758,4.57142857 L28.1855229,4.57142857 L28.1855229,4.57142857 Z M28.1855229,18.2857143 C29.4506237,18.2857143 30.4761905,17.2711662 30.4761905,16 L30.4761905,16 C30.4761905,14.7376349 29.4621931,13.7142857 28.1855229,13.7142857 L2.29066758,13.7142857 C1.02556681,13.7142857 0,14.7288339 0,16 L0,16 C0,17.2623651 1.0139974,18.2857143 2.29066758,18.2857143 L28.1855229,18.2857143 L28.1855229,18.2857143 Z M28.1855229,32 C29.4506237,32 30.4761905,30.9854519 30.4761905,29.7142857 L30.4761905,29.7142857 C30.4761905,28.4519206 29.4621931,27.4285714 28.1855229,27.4285714 L2.29066758,27.4285714 C1.02556681,27.4285714 0,28.4431195 0,29.7142857 L0,29.7142857 C0,30.9766508 1.0139974,32 2.29066758,32 L28.1855229,32 L28.1855229,32 Z" id="Fill-4"></path>
                    </g>
                </g>
            </g>
        </g>
    </g>
</svg>

<svg width="31" height="32" viewBox="0 0 31 32" xmlns="http://www.w3.org/2000/svg"><title>white/icon-ui-hamburger-white</title><path d="M28.186 4.571a2.283 2.283 0 0 0 2.29-2.285A2.28 2.28 0 0 0 28.186 0H2.29A2.283 2.283 0 0 0 0 2.286 2.28 2.28 0 0 0 2.29 4.57h25.896zm0 13.715A2.283 2.283 0 0 0 30.476 16a2.28 2.28 0 0 0-2.29-2.286H2.29A2.283 2.283 0 0 0 0 16a2.28 2.28 0 0 0 2.29 2.286h25.896zm0 13.714a2.283 2.283 0 0 0 2.29-2.286 2.28 2.28 0 0 0-2.29-2.285H2.29A2.283 2.283 0 0 0 0 29.714 2.28 2.28 0 0 0 2.29 32h25.896z" fill="#FFF" fill-rule="evenodd"/></svg>
